SVG_Azure_All/Apache Spark Pause Setting.svg

<?xml version="1.0" encoding="UTF-8" standalone="no"?>
<!-- Generated by Microsoft Visio, SVG Export Apache Spark Pause Setting.svg Page-1 -->

<svg
   xmlns:dc="http://purl.org/dc/elements/1.1/"
   xmlns:cc="http://creativecommons.org/ns#"
   xmlns:rdf="http://www.w3.org/1999/02/22-rdf-syntax-ns#"
   xmlns:svg="http://www.w3.org/2000/svg"
   xmlns="http://www.w3.org/2000/svg"
   xmlns:sodipodi="http://sodipodi.sourceforge.net/DTD/sodipodi-0.dtd"
   xmlns:inkscape="http://www.inkscape.org/namespaces/inkscape"
   width="0.62986016in"
   height="0.78735989in"
   viewBox="0 0 45.349842 56.689997"
   xml:space="preserve"
   class="st2"
   version="1.1"
   id="svg19"
   sodipodi:docname="Apache Spark Pause Setting.svg"
   style="font-size:12px;overflow:visible;color-interpolation-filters:sRGB;fill:none;fill-rule:evenodd;stroke-linecap:square;stroke-miterlimit:3"
   inkscape:version="0.92.5 (2060ec1f9f, 2020-04-08)"><metadata
   id="metadata25"><rdf:RDF><cc:Work
       rdf:about=""><dc:format>image/svg+xml</dc:format><dc:type
         rdf:resource="http://purl.org/dc/dcmitype/StillImage" /></cc:Work></rdf:RDF></metadata><defs
   id="defs23" /><sodipodi:namedview
   pagecolor="#ffffff"
   bordercolor="#666666"
   borderopacity="1"
   objecttolerance="10"
   gridtolerance="10"
   guidetolerance="10"
   inkscape:pageopacity="0"
   inkscape:pageshadow="2"
   inkscape:window-width="640"
   inkscape:window-height="480"
   id="namedview21"
   showgrid="false"
   inkscape:zoom="1.3289007"
   inkscape:cx="30.235953"
   inkscape:cy="37.791271"
   inkscape:window-x="0"
   inkscape:window-y="0"
   inkscape:window-maximized="0"
   inkscape:current-layer="svg19" />
	<style
   type="text/css"
   id="style2">
	<![CDATA[
		.st1 {fill:#0078d4;stroke:none;stroke-linecap:butt;stroke-width:38.25}
		.st2 {fill:none;fill-rule:evenodd;font-size:12px;overflow:visible;stroke-linecap:square;stroke-miterlimit:3}
	]]>
	</style>

	<g
   id="g17"
   transform="translate(-38.250214,-38.25)">
		<title
   id="title4">Page-1</title>
		<g
   id="group10333-1"
   transform="translate(38.25,-38.25)">
			<title
   id="title6">Apache Spark Pause Setting</title>
			<g
   id="group10334-2">
				<title
   id="title8">Sheet.10334</title>
				<g
   id="shape10335-3">
					<title
   id="title10">Sheet.10335</title>
					<path
   d="M 24.74,102.27 V 76.5 h -4.12 v 27.44 z M 4.12,76.5 H 0 v 48.59 h 4.12 z m 37.23,40.9 a 9.85426,9.6776 0 0 1 0,3.86 l 4,1.62 -1.57,3.76 -4,-1.64 a 10.6377,10.4469 0 0 1 -2.77,2.71 l 1.68,3.93 -3.84,1.55 -1.65,-3.92 a 10.0645,9.88411 0 0 1 -3.93,0 l -1.65,3.92 -3.83,-1.55 1.68,-3.93 A 10.5964,10.4065 0 0 1 22.7,125 l -4,1.64 -1.58,-3.76 4,-1.62 a 10.0645,9.88411 0 0 1 0,-3.86 l -4,-1.62 1.58,-3.77 4,1.65 c 0.74,-1.07 1.68,-1.99 2.77,-2.72 l -1.68,-3.93 3.83,-1.55 1.65,3.93 a 9.85426,9.6776 0 0 1 3.93,0 l 1.65,-3.93 3.84,1.55 -1.68,3.93 c 1.09,0.73 2.02,1.65 2.77,2.72 l 4,-1.65 1.57,3.77 z m -10.1,8 c 0.82,0.01 1.64,-0.16 2.41,-0.48 1.49,-0.6 2.68,-1.77 3.3,-3.23 a 6.28776,6.17504 -180 0 0 0,-4.75 6.15994,6.04951 -180 0 0 -5.71,-3.71 6.18468,6.07381 -180 0 0 -6.2,6.08 6.16819,6.05761 -180 0 0 6.2,6.1 z"
   class="st1"
   id="path12"
   inkscape:connector-curvature="0"
   style="fill:#0078d4;stroke:none;stroke-width:38.25;stroke-linecap:butt" />
				</g>
			</g>
		</g>
	</g>
</svg>

<?xml version="1.0" encoding="UTF-8" standalone="no"?>
<!DOCTYPE svg PUBLIC "-//W3C//DTD SVG 1.1//EN" "http://www.w3.org/Graphics/SVG/1.1/DTD/svg11.dtd">
<!-- Generated by Microsoft Visio, SVG Export Apache Spark Pause Setting.svg Page-1 -->
<svg xmlns="http://www.w3.org/2000/svg" xmlns:xlink="http://www.w3.org/1999/xlink" xmlns:ev="http://www.w3.org/2001/xml-events"
		width="1.69242in" height="1.8499in" viewBox="0 0 121.854 133.193" xml:space="preserve" color-interpolation-filters="sRGB"
		class="st2">
	<style type="text/css">
	<![CDATA[
		.st1 {fill:#0078d4;stroke:none;stroke-linecap:butt;stroke-width:38.25}
		.st2 {fill:none;fill-rule:evenodd;font-size:12px;overflow:visible;stroke-linecap:square;stroke-miterlimit:3}
	]]>
	</style>

	<g>
		<title>Page-1</title>
		<g id="group10102-1" transform="translate(38.25,-38.25)">
			<title>Apache Spark Pause Setting</title>
			<g id="group10103-2">
				<title>Sheet.10103</title>
				<g id="shape10104-3">
					<title>Sheet.10104</title>
					<path d="M24.74 102.27 L24.74 76.5 L20.62 76.5 L20.62 103.94 L24.74 102.27 ZM4.12 76.5 L0 76.5 L0 125.09 L4.12
								 125.09 L4.12 76.5 ZM41.35 117.4 A9.85426 9.6776 0 0 1 41.35 121.26 L45.35 122.88 L43.78 126.64 L39.78
								 125 A10.6377 10.4469 0 0 1 37.01 127.71 L38.69 131.64 L34.85 133.19 L33.2 129.27 A10.0645 9.88411
								 0 0 1 29.27 129.27 L27.62 133.19 L23.79 131.64 L25.47 127.71 A10.5964 10.4065 0 0 1 22.7 125 L18.7
								 126.64 L17.12 122.88 L21.12 121.26 A10.0645 9.88411 0 0 1 21.12 117.4 L17.12 115.78 L18.7 112.01
								 L22.7 113.66 C23.44 112.59 24.38 111.67 25.47 110.94 L23.79 107.01 L27.62 105.46 L29.27 109.39 A9.85426
								 9.6776 0 0 1 33.2 109.39 L34.85 105.46 L38.69 107.01 L37.01 110.94 C38.1 111.67 39.03 112.59 39.78
								 113.66 L43.78 112.01 L45.35 115.78 L41.35 117.4 ZM31.25 125.4 C32.07 125.41 32.89 125.24 33.66 124.92
								 C35.15 124.32 36.34 123.15 36.96 121.69 A6.28776 6.17504 -180 0 0 36.96 116.94 A6.15994 6.04951
								 -180 0 0 31.25 113.23 A6.18468 6.07381 -180 0 0 25.05 119.31 A6.16819 6.05761 -180 0 0 31.25 125.41
								 L31.25 125.4 Z" class="st1"/>
				</g>
			</g>
		</g>
	</g>
</svg>
